src/pos-icons/alpha-d-box-outline.svg

<svg height="24" viewBox="0 0 24 24" width="24" xmlns="http://www.w3.org/2000/svg"><path d="m9 7h4a2 2 0 0 1 2 2v6a2 2 0 0 1 -2 2h-4zm2 2v6h2v-6zm-8-4a2 2 0 0 1 2-2h14a2 2 0 0 1 2 2v14a2 2 0 0 1 -2 2h-14c-1.11 0-2-.9-2-2zm2 0v14h14v-14z"/></svg>

<?xml version="1.0" encoding="UTF-8"?><!DOCTYPE svg PUBLIC "-//W3C//DTD SVG 1.1//EN" "http://www.w3.org/Graphics/SVG/1.1/DTD/svg11.dtd"><svg xmlns="http://www.w3.org/2000/svg" xmlns:xlink="http://www.w3.org/1999/xlink" version="1.1" id="mdi-alpha-d-box-outline" width="24" height="24" viewBox="0 0 24 24"><path d="M9,7H13A2,2 0 0,1 15,9V15A2,2 0 0,1 13,17H9V7M11,9V15H13V9H11M3,5A2,2 0 0,1 5,3H19A2,2 0 0,1 21,5V19A2,2 0 0,1 19,21H5C3.89,21 3,20.1 3,19V5M5,5V19H19V5H5Z" /></svg>
